src/img/chefhat.svg

<svg width="30" height="29" viewBox="0 0 30 29" fill="none" xmlns="http://www.w3.org/2000/svg">
<path d="M5.4681 28.476L5.49082 28.7009H5.71684H23.3569H23.5829L23.6057 28.476L24.8731 15.9279C27.2464 15.2045 28.8733 13.049 28.8733 10.5111C28.8733 7.41876 26.3208 4.86633 23.2285 4.86633C22.586 4.86633 21.9792 4.97437 21.3784 5.18913C20.0593 2.73585 17.4676 1.14136 14.6225 1.14136C11.7772 1.14136 9.18541 2.73602 7.86638 5.18952C7.25651 4.97395 6.61494 4.86633 5.97373 4.86633C2.83856 4.86633 0.286133 7.41875 0.286133 10.5539C0.286133 13.0479 1.91023 15.2009 4.20043 15.9261L5.4681 28.476ZM23.2761 14.2887L23.0845 14.3182L23.0653 14.5111L22.4027 21.1791H6.67109L6.00843 14.5111L5.98951 14.3207L5.80075 14.2892L5.28885 14.2039C3.52728 13.8827 2.24187 12.319 2.24187 10.5111C2.24187 8.46558 3.9282 6.77925 5.97373 6.77925C6.62029 6.77925 7.29906 6.9414 7.85088 7.29615L7.85078 7.29631L7.85932 7.30134L8.58719 7.72949L8.84509 7.8812L8.94853 7.60044L9.24824 6.78694L9.2486 6.78595C10.069 4.52971 12.2445 3.01146 14.6225 3.01146C17.0013 3.01146 19.177 4.53064 19.9969 6.74452L19.9969 6.74454L19.9984 6.74831L20.2981 7.51899L20.4046 7.79284L20.6578 7.64386L21.383 7.21728C21.3834 7.21703 21.3839 7.21677 21.3843 7.21651C21.9436 6.89727 22.585 6.73643 23.2285 6.73643C25.274 6.73643 26.9603 8.42276 26.9603 10.4683C26.9603 12.3613 25.6334 13.9229 23.8324 14.2031C23.8324 14.2031 23.8323 14.2031 23.8323 14.2031L23.2761 14.2887ZM21.8041 26.788H7.22686L6.85025 23.1349H22.1807L21.8041 26.788Z" fill="black" stroke="black" stroke-width="0.5"/>
</svg>

<svg width="30" height="29" fill="none" xmlns="http://www.w3.org/2000/svg"><path d="M5.468 28.476l.023.225h18.092l.023-.225 1.267-12.548a5.62 5.62 0 004-5.417c0-3.092-2.552-5.645-5.645-5.645-.642 0-1.249.108-1.85.323a7.699 7.699 0 00-6.755-4.048A7.699 7.699 0 007.866 5.19a5.695 5.695 0 00-7.58 5.364A5.633 5.633 0 004.2 15.926l1.268 12.55zm17.808-14.187l-.192.03-.019.192-.662 6.668H6.67l-.663-6.668-.018-.19-.19-.032-.511-.085c-1.762-.321-3.047-1.885-3.047-3.693 0-2.045 1.686-3.732 3.732-3.732.646 0 1.325.162 1.877.517h0l.008.005.728.428.258.152.104-.28.3-.814v-.001c.82-2.256 2.995-3.775 5.373-3.775 2.38 0 4.555 1.52 5.375 3.734h0l.001.003.3.771.107.274.253-.15.725-.426h.001c.56-.32 1.201-.48 1.845-.48 2.045 0 3.731 1.686 3.731 3.731 0 1.893-1.327 3.455-3.128 3.735 0 0 0 0 0 0l-.556.086zm-1.472 12.499H7.227l-.377-3.653h15.33l-.376 3.653z" fill="#000" stroke="#000" stroke-width=".5"/></svg>
